public/tech_stack_icons/sql.svg

<svg width="512" height="512" viewBox="0 0 512 512" fill="none" xmlns="http://www.w3.org/2000/svg">
<path d="M128.803 238C128.386 232.792 126.433 228.729 122.943 225.812C119.506 222.896 114.271 221.438 107.24 221.438C102.761 221.438 99.0892 221.984 96.2246 223.078C93.4121 224.12 91.3288 225.552 89.9746 227.375C88.6204 229.198 87.9173 231.281 87.8652 233.625C87.7611 235.552 88.0996 237.297 88.8809 238.859C89.7142 240.37 91.0163 241.75 92.7871 243C94.5579 244.198 96.8236 245.292 99.584 246.281C102.344 247.271 105.626 248.156 109.428 248.938L122.553 251.75C131.407 253.625 138.985 256.099 145.287 259.172C151.589 262.245 156.745 265.865 160.756 270.031C164.766 274.146 167.709 278.781 169.584 283.938C171.511 289.094 172.501 294.719 172.553 300.812C172.501 311.333 169.87 320.24 164.662 327.531C159.454 334.823 152.006 340.37 142.318 344.172C132.683 347.974 121.094 349.875 107.553 349.875C93.6465 349.875 81.5111 347.818 71.1465 343.703C60.834 339.589 52.8132 333.26 47.084 324.719C41.4069 316.125 38.5423 305.135 38.4902 291.75H79.7402C80.0007 296.646 81.2246 300.76 83.4121 304.094C85.5996 307.427 88.6725 309.953 92.6309 311.672C96.6413 313.391 101.407 314.25 106.928 314.25C111.563 314.25 115.443 313.677 118.568 312.531C121.693 311.385 124.063 309.797 125.678 307.766C127.292 305.734 128.126 303.417 128.178 300.812C128.126 298.365 127.318 296.229 125.756 294.406C124.245 292.531 121.745 290.865 118.256 289.406C114.766 287.896 110.053 286.49 104.115 285.188L88.1777 281.75C74.0111 278.677 62.8392 273.547 54.6621 266.359C46.5371 259.12 42.5007 249.25 42.5527 236.75C42.5007 226.594 45.209 217.714 50.6777 210.109C56.1986 202.453 63.8288 196.49 73.5684 192.219C83.36 187.948 94.584 185.812 107.24 185.812C120.157 185.812 131.329 187.974 140.756 192.297C150.183 196.62 157.449 202.714 162.553 210.578C167.709 218.391 170.313 227.531 170.365 238H128.803Z" fill="white"/>
<path d="M250.951 288.625H284.701L296.889 303.938L317.514 327.375L344.389 359.875H305.951L286.889 337.688L274.076 319.25L250.951 288.625ZM344.076 268C344.076 285.813 340.613 300.839 333.686 313.078C326.758 325.266 317.41 334.51 305.639 340.812C293.868 347.063 280.743 350.188 266.264 350.188C251.68 350.188 238.503 347.036 226.732 340.734C215.014 334.38 205.691 325.109 198.764 312.922C191.889 300.682 188.451 285.708 188.451 268C188.451 250.187 191.889 235.187 198.764 223C205.691 210.76 215.014 201.516 226.732 195.266C238.503 188.964 251.68 185.812 266.264 185.812C280.743 185.812 293.868 188.964 305.639 195.266C317.41 201.516 326.758 210.76 333.686 223C340.613 235.187 344.076 250.187 344.076 268ZM299.389 268C299.389 258.417 298.113 250.344 295.561 243.781C293.061 237.167 289.337 232.167 284.389 228.781C279.493 225.344 273.451 223.625 266.264 223.625C259.076 223.625 253.008 225.344 248.061 228.781C243.165 232.167 239.441 237.167 236.889 243.781C234.389 250.344 233.139 258.417 233.139 268C233.139 277.583 234.389 285.682 236.889 292.297C239.441 298.859 243.165 303.859 248.061 307.297C253.008 310.682 259.076 312.375 266.264 312.375C273.451 312.375 279.493 310.682 284.389 307.297C289.337 303.859 293.061 298.859 295.561 292.297C298.113 285.682 299.389 277.583 299.389 268Z" fill="white"/>
<path d="M364.389 348V188H407.826V313H472.514V348H364.389Z" fill="white"/>
</svg>

<svg xmlns="http://www.w3.org/2000/svg" width="512" height="512" fill="none"><path fill="#fff" d="M128.803 238c-.417-5.208-2.37-9.271-5.86-12.188-3.437-2.916-8.672-4.374-15.703-4.374-4.479 0-8.15.546-11.015 1.64-2.813 1.042-4.896 2.474-6.25 4.297-1.355 1.823-2.058 3.906-2.11 6.25-.104 1.927.235 3.672 1.016 5.234.833 1.511 2.135 2.891 3.906 4.141 1.77 1.198 4.037 2.292 6.797 3.281 2.76.99 6.042 1.875 9.844 2.657l13.125 2.812c8.854 1.875 16.432 4.349 22.734 7.422 6.302 3.073 11.458 6.693 15.469 10.859 4.01 4.115 6.953 8.75 8.828 13.907 1.927 5.156 2.917 10.781 2.969 16.874-.052 10.521-2.683 19.428-7.891 26.719-5.208 7.292-12.656 12.839-22.344 16.641-9.635 3.802-21.224 5.703-34.765 5.703-13.906 0-26.042-2.057-36.406-6.172-10.313-4.114-18.334-10.443-24.063-18.984-5.677-8.594-8.542-19.584-8.594-32.969h41.25c.26 4.896 1.485 9.01 3.672 12.344 2.188 3.333 5.26 5.859 9.219 7.578 4.01 1.719 8.776 2.578 14.297 2.578 4.635 0 8.515-.573 11.64-1.719 3.125-1.146 5.495-2.734 7.11-4.765 1.614-2.032 2.448-4.349 2.5-6.954-.052-2.447-.86-4.583-2.422-6.406-1.511-1.875-4.011-3.541-7.5-5-3.49-1.51-8.203-2.916-14.141-4.218l-15.937-3.438c-14.167-3.073-25.339-8.203-33.516-15.391-8.125-7.239-12.161-17.109-12.11-29.609-.051-10.156 2.657-19.036 8.126-26.641 5.52-7.656 13.15-13.619 22.89-17.89 9.792-4.271 21.016-6.407 33.672-6.407 12.917 0 24.089 2.162 33.516 6.485s16.693 10.417 21.797 18.281c5.156 7.813 7.76 16.953 7.812 27.422h-41.562ZM250.951 288.625h33.75l12.188 15.313 20.625 23.437 26.875 32.5h-38.438l-19.062-22.187-12.813-18.438-23.125-30.625ZM344.076 268c0 17.813-3.463 32.839-10.39 45.078-6.928 12.188-16.276 21.432-28.047 27.734-11.771 6.251-24.896 9.376-39.375 9.376-14.584 0-27.761-3.152-39.532-9.454-11.718-6.354-21.041-15.625-27.968-27.812-6.875-12.24-10.313-27.214-10.313-44.922 0-17.813 3.438-32.813 10.313-45 6.927-12.24 16.25-21.484 27.968-27.734 11.771-6.302 24.948-9.454 39.532-9.454 14.479 0 27.604 3.152 39.375 9.454 11.771 6.25 21.119 15.494 28.047 27.734 6.927 12.187 10.39 27.187 10.39 45Zm-44.687 0c0-9.583-1.276-17.656-3.828-24.219-2.5-6.614-6.224-11.614-11.172-15-4.896-3.437-10.938-5.156-18.125-5.156-7.188 0-13.256 1.719-18.203 5.156-4.896 3.386-8.62 8.386-11.172 15-2.5 6.563-3.75 14.636-3.75 24.219 0 9.583 1.25 17.682 3.75 24.297 2.552 6.562 6.276 11.562 11.172 15 4.947 3.385 11.015 5.078 18.203 5.078 7.187 0 13.229-1.693 18.125-5.078 4.948-3.438 8.672-8.438 11.172-15 2.552-6.615 3.828-14.714 3.828-24.297ZM364.389 348V188h43.437v125h64.688v35H364.389Z"/></svg>
